src/assets/icons/blog.svg

<svg width="32" height="32" viewBox="0 0 32 32" fill="none" xmlns="http://www.w3.org/2000/svg">
<rect width="32" height="32" rx="4" fill="#9D41F1"/>
<path d="M18.0369 11.7743C16.9974 12.6063 16.0384 13.4775 15.0894 14.4802C13.0942 16.5888 11.5383 18.573 10.3278 20.5394C10.0394 21.0087 9.75441 21.4852 9.47274 21.9581C9.27826 22.4524 9.1173 22.9609 9.01 23.4942C8.93623 23.8641 9.28496 24.1734 9.58675 23.8889C9.8986 23.5903 10.1736 23.2489 10.4385 22.904C10.9046 22.2959 11.3438 21.6666 11.7798 21.0372C15.1497 21.279 19.0495 18.989 20.7127 16.1799C20.7429 16.1301 20.7496 16.0661 20.7295 16.0128C20.7094 15.9559 20.6692 15.9132 20.6155 15.8955C19.8074 15.6252 18.8182 15.4545 18.4091 15.4332C18.3923 15.4332 18.3755 15.419 18.3722 15.3976C18.3688 15.3799 18.3789 15.3621 18.3957 15.355C19.5089 14.7754 20.3204 14.7078 21.2727 14.85C21.3431 14.8607 21.4069 14.8038 21.4337 14.7363C21.5276 14.5194 21.7891 13.8651 21.9702 13.3317C22.0004 13.2393 21.9635 13.1397 21.883 13.0935C21.1721 12.7094 20.2265 12.4499 19.8476 12.4108C19.8308 12.4108 19.8174 12.393 19.8141 12.3752C19.8107 12.3574 19.8208 12.3396 19.8376 12.3325C20.9374 11.8489 21.323 11.8347 22.2016 12.0303C22.2888 12.0481 22.3726 11.9805 22.3927 11.888C22.8253 10.1741 22.9661 8.69136 22.9996 8.20777C23.003 8.15088 22.9829 8.09399 22.9426 8.05132C22.9024 8.0122 22.8487 7.99442 22.7951 8.00153C20.3506 8.35712 18.3923 8.8656 16.7023 9.55187C16.6453 9.57321 16.5916 9.62299 16.5916 9.68699C16.7358 10.2381 16.3502 10.896 15.7466 11.3902C15.7366 11.4045 15.7198 11.4116 15.703 11.408C15.6863 11.4009 15.6762 11.3831 15.6762 11.3653C15.6796 11.3191 15.8338 10.7004 15.7433 10.2488C15.7299 10.1848 15.7097 10.1244 15.6594 10.0888C15.6091 10.0532 15.5421 10.0497 15.4884 10.0746C7.56476 13.8864 9.56663 20.1731 9.56663 20.1731C9.57669 20.1767 9.58675 20.1767 9.59681 20.1802C10.4921 18.3205 11.5014 16.948 13.0875 15.1452C14.2645 13.8082 15.418 12.7201 16.6118 11.8205C17.3629 11.2551 19.0596 10.0817 20.1226 9.67633C20.1595 9.6621 20.193 9.65499 20.2265 9.65499C20.3238 9.65499 20.4042 9.719 20.4277 9.815C20.4478 9.89323 20.4311 9.97857 20.3808 10.0426L18.0369 11.7743Z" fill="white"/>
</svg>

<svg width="32" height="32" fill="none" xmlns="http://www.w3.org/2000/svg"><rect width="32" height="32" rx="4" fill="#9D41F1"/><path d="M18.037 11.774a28.578 28.578 0 00-2.948 2.706c-1.995 2.109-3.55 4.093-4.761 6.06-.289.469-.574.945-.855 1.418a9.074 9.074 0 00-.463 1.536c-.074.37.275.68.577.395.312-.299.587-.64.851-.985.467-.608.906-1.237 1.342-1.867 3.37.242 7.27-2.048 8.933-4.857a.196.196 0 00.017-.167.183.183 0 00-.114-.118c-.809-.27-1.798-.44-2.207-.462-.017 0-.034-.014-.037-.035a.039.039 0 01.024-.043c1.113-.58 1.924-.647 2.877-.505.07.01.134-.046.16-.114.095-.217.356-.87.537-1.404a.201.201 0 00-.087-.239c-.71-.384-1.656-.643-2.035-.682-.017 0-.03-.018-.034-.036a.039.039 0 01.024-.043c1.1-.483 1.485-.497 2.364-.302.087.018.17-.05.19-.142.433-1.714.574-3.197.608-3.68a.21.21 0 00-.057-.157.177.177 0 00-.148-.05c-2.444.356-4.403.865-6.093 1.55-.057.022-.11.072-.11.136.144.551-.242 1.209-.845 1.703a.042.042 0 01-.044.018.046.046 0 01-.027-.043c.004-.046.158-.665.067-1.116-.013-.064-.033-.125-.084-.16a.173.173 0 00-.17-.014c-7.924 3.811-5.922 10.098-5.922 10.098.01.004.02.004.03.007.895-1.86 1.904-3.232 3.49-5.035 1.178-1.337 2.331-2.425 3.525-3.325.75-.565 2.448-1.738 3.51-2.144a.285.285 0 01.105-.021c.097 0 .177.064.2.16a.264.264 0 01-.046.228l-2.344 1.731z" fill="#fff"/></svg>
